X:1
T:Wonderful Savior
T:Wonderful Savior
T:John Millard Harris
T:John Millard Harris, 1905
T:Public Domain Courtesy of the Cyber Hymnal™
T:Public Domain Courtesy of the Cyber Hymnal™
C:John Millard Harris
Z:Public Domain
Z:Courtesy of the Cyber Hymnal™
%%score 1 ( 2 3 )
L:1/8
Q:1/4=110
M:9/8
K:F
V:1 treble 
V:2 bass 
V:3 bass 
V:1
 [CA][B,G][A,F] | [A,C]3 [CF]3 [CG][CF][CG] | [CA]3 [A,F]3 [B,F][B,G][CA] | %3
w: 1.~Je- sus, my|king, my won- der- ful|Sav- ior, All of my|
w: 2.~Free- dom from|sin, O won- der- ful|sto- ry– All of its|
w: 3.~Je- sus, my|Lord, I’ll ev- er a-|dore Thee, Lay at Thy|
w: 4.~When in that|bright and beau- ti- ful|ci- ty I shall be-|
 [DB]3 [DB]3 [DB][DF][_DG] | [CA]3- [CA]2 z [FA][F^G][FA] | [Fc]3 [CA]3 [CA][DB][CA] | %6
w: life is giv- en to|Thee. * I am re-|joic- ing in Thy sal-|
w: stains washed whit- er than|snow! * Je- sus has|come to live in His|
w: feet my trea- sures of|love. * Lead me in|ways to show forth Thy|
w: hold Thy glo- ries un-|told, * I shall be|like Thee, won- der- ful|
 [B,D]3 [B,G]3 [^G,F][G,E][G,D] | [A,C]3 [CA]3 [CG][CF][CE] | [CF]3- [CF]2 z || %9
w: va- tion; Thy pre- cious|blood now mak- eth me|free. *|
w: tem- ple, And with His|love my heart is a-|glow. *|
w: glo- ry, Ways that will|end in Heav- en a-|bove. *|
w: Sav- ior, And I will|sing while ag- es un-|fold. *|
"^Refrain" [EG][EG][EG] | [EG]3 [GB]3 [GB][FA][EG] | [FA]3 [CF]3 [FA][FA][FA] | %12
w: |||
w: Won- der- ful|Sav- ior, won- der- ful|Sav- ior, Thou art so|
w: |||
w: |||
 [EG]3 [EG]3 [F=B][FA][FB] | [Ec]3- [Ec]2 z [Fc][Fd][Fc] | [Fc]3 [CA]3 [CA][DB][CA] | %15
w: |||
w: near, so pre- cious to|me! * Won- der- ful|Sav- ior, won- der- ful|
w: |||
w: |||
 [B,D]3 [B,G]3 [^G,F][G,E][G,D] | [A,C]3 [CA]3 [B,G][A,F][B,E] | [A,F]3- [A,F]2 z |] %18
w: |||
w: Sav- ior, My heart is|filled with prais- es to|Thee! *|
w: |||
w: |||
V:2
 [F,,F,][F,,F,][F,,F,] | [F,,F,]3 [G,,F,]3 [C,E,][C,D,][C,E,] | F,3 F,3 F,F,F, | %3
 [B,,F,]3 [B,,F,]3 [B,,F,][B,,F,][B,,F,] | [F,,F,]3- [F,,F,]2 z [F,C][F,=B,][F,C] | %5
 [F,A,]3 F,3 F,F,F, | [B,,F,]3 [B,,D,]3 [=B,,D,][B,,E,][B,,F,] | %7
 [C,F,]3 [C,F,]3 [C,B,][C,A,][C,G,] | [F,A,]3- [F,A,]2 z || [C,C][C,C][C,C] | %10
 [C,C]3 [C,C]3 [C,C][C,C][C,C] | [F,C]3 [F,A,]3 [F,C][F,C][F,C] | [G,C]3 [G,C]3 [G,D][G,D][G,D] | %13
 [C,C]3- [C,C]2 z [F,A,][F,B,][F,A,] | [F,A,]3 F,3 F,F,F, | %15
 [B,,F,]3 [B,,D,]3 [=B,,D,][B,,E,][B,,F,] | [C,F,]3 [C,F,]3 [C,E,][C,F,][C,G,] | %17
 [F,,F,]3- [F,,F,]2 z |] %18
V:3
 x3 | x9 | F,3 F,3 F,F,F, | x9 | x9 | x3 F,3 F,F,F, | x9 | x9 | x6 || x3 | x9 | x9 | x9 | x9 | %14
 x3 F,3 F,F,F, | x9 | x9 | x6 |] %18

